!!!OTL: Feria Secunda
**kern
*staff1
=--
*clefG2
*k[]
0r
=-
1g
1a
=-
1cc
1a
=-
1a
1a
=-
0a
=-
0g
=-
2a
2b
2cc
2a
=-
1g
1a
=-
!!linebreak:original
1g
1a
=-
1cc
1dd
=-
!LO:TX:Y=-34:t=P
1cc
2cc
2cc
=-
2b
2a
1g
=-
!LO:TX:Y=-36:t=P
1a
1a
=-
1cc
1cc
=-
1dd
2cc
2b
=-
!LO:TX:Y=-35:t=P
1a
1g
!!linebreak:original
=-
0g
=-
1.cc
2cc
=-
!LO:TX:Y=-37:t=P
1cc
1.dd
2cc
1b
=-
!LO:TX:Y=-40:t=P
1a
2dd
2cc
=-
0a
=-
0cc
=-
!!linebreak:original
*clefC1
0r
=-
*k[b-]
1cc
2dd
2cc
=-
2b-
2a
2g
2a
=-
1a
2b-
2cc
=-
2dd
2cc
1b-
=-
1cc
1dd
=-
1b-
0cc
0b-
=-
!!linebreak:original
*k[]
1f
1g
=-
1a
1g
=-
1a
2g
2f
=-
1e
1d
=-
1f
1g
=-
!LO:TX:Y=-37:t=P
1a
1g
=-
1a
2b
2cc
=-
2dd
2b
2cc
2dd
=-
0cc
=-
0dd
=-=
*-
!!title: @{OTL}, @{GTL}, ed. @{ENC}
!!!pag:
!!!GTL: Hymnbook C
!!!EFL: 
!!!YEM: Creative Commons CC/BY/NC/SA 4.0
!!!ENC: Marcin Konik
!!!END: 2015-0m-dd
!!!EED: Marcin Konik
!!!EEV: 
!!!ONB: Encoded in vim by Marcin Konik
!!!CharacterEncoding: utf-8
!!!RDF**kern: l=long note in original notation
!!!RDF**kern: i=editorial accidental
!!muse2ps: z14jc180F
!!!COM: Anonim
!!!CDT: [?]
!!!TXO: Polish
!!!ODT: 
!!!GTL: Hymnbook C
!!!ARL: Opactwo św. Wojciecha, Staniątki 
!!!voices:	1
